X:1011
T:Marshall's Do.
M:C
L:1/8
Q:1/4=80 "Slow"
Z:Jack Campin * www.campin.me.uk * 2009
K:D
Ddd>e d/e/f/d/ A2|Eee>f Te>dB2|Ddd>e d>e      d/e/f/g/|a/b/c'/d'/ b/a/g/f/ Te2d2:|
faa>b a>baf      |edef   d>edA|Bbbd' b/a/g/f/ g/f/e/d/|e/f/g/f/   g/f/e/d/ Te2d2 |
faa>b a>baf      |e>def  d>edA|BdAd  GdF>b            |afed                Te2d2|]

